X:355
T:Lazy Day
M:3/4
L:1/4
C:© Paul Gitlitz 2014
R:waltz
K:G
"G"B2d |"Bm"B2d|"G"G>A B/c/|"D" A3|!
"C"c2e |"C/E"c2e|"D"a/g/ f/e/ d/c/|"G"B3|!
"G"B2d |"Em"e2d|"G/B"g>a b| "C"c3|!
"D"A>B c/d/|"Em"e>f g/b/|"D"a/g/ f>a|"G"g3:|!
|:"G"g2b|"D"f2a|"Em" e/g/ f>d|"C"c3|!
"D"f2a|"Em"e2g|"D"f/d/c>d|"G"B3|!
"G"g/b/ g>d|"D"f/a/ f>d| "Em"e/g/ f>d|"C"e3|!
"D"f>c f/g/| "D/A"f>c f/g/|"D"a>b a|"G"g3:|]
